img/linkedin.svg

<!-- Generated by IcoMoon.io -->
<svg version="1.1" xmlns="http://www.w3.org/2000/svg" width="64" height="64" viewBox="0 0 64 64">
<title>linkedin</title>
<path fill="#787878" background="yellow" d="M58 0h-52c-3.3 0-6 2.7-6 6v52c0 3.3 2.7 6 6 6h52c3.3 0 6-2.7 6-6v-52c0-3.3-2.7-6-6-6zM24 52h-8v-28h8v28zM20 20c-2.212 0-4-1.788-4-4s1.788-4 4-4c2.212 0 4 1.787 4 4s-1.788 4-4 4zM52 52h-8v-16c0-2.212-1.788-4-4-4s-4 1.788-4 4v16h-8v-28h8v4.962c1.65-2.262 4.175-4.962 7-4.962 4.975 0 9 4.475 9 10v18z"></path>
</svg>

<svg xmlns="http://www.w3.org/2000/svg" width="64" height="64" viewBox="0 0 64 64"><title>linkedin</title><path fill="#787878" d="M58 0H6C2.7 0 0 2.7 0 6v52c0 3.3 2.7 6 6 6h52c3.3 0 6-2.7 6-6V6c0-3.3-2.7-6-6-6zM24 52h-8V24h8v28zm-4-32c-2.212 0-4-1.788-4-4s1.788-4 4-4c2.212 0 4 1.787 4 4s-1.788 4-4 4zm32 32h-8V36c0-2.212-1.788-4-4-4s-4 1.788-4 4v16h-8V24h8v4.962C37.65 26.7 40.175 24 43 24c4.975 0 9 4.475 9 10v18z"/></svg>
